images/Exercism_files/external-site-twitter-6717f73e3402edb200e17233edc6d9aa756d084c.svg

<svg fill="none" viewBox="0 0 16 17" xmlns="http://www.w3.org/2000/svg"><path clip-rule="evenodd" d="m13.4734 2.93252c-.5987-.66179-1.4518-1.08344-2.396-1.09872-1.81276-.02934-3.2826 1.45994-3.2826 3.32626 0 .26487.02904.52317.08504.77112-2.72816-.17204-5.14696-1.55321-6.76592-3.63516-.28256.49888-.44448 1.08196-.44448 1.70657 0 1.18245.57952 2.23185 1.46032 2.85147-.53808-.0231-1.04424-.18146-1.4868-.44126-.00032.0142-.00032.0284-.00032.04285 0 1.65129 1.13152 3.03658 2.6332 3.35929-.27544.07588-.56544.11559-.8648.11366-.21152-.00136-.4172-.02417-.6176-.06512.41768 1.35422 1.62992 2.34242 3.0664 2.37512-1.12344.9066-2.5388 1.4466-4.0768 1.4435-.26496-.0005-.52624-.0172-.78304-.0492 1.45272.9691 3.17816 1.5333 5.03192 1.5338 6.03788.0015 9.33968-5.1069 9.33968-9.53784 0-.14538-.0033-.28998-.0095-.43388.6413-.46462 1.1978-1.04715 1.6379-1.71235-.5886.25797-1.2214.42931-1.8853.50118.6777-.40549 1.1983-1.05446 1.4433-1.8327-.6343.37398-1.3368.64218-2.0846.78141z" fill="#000" fill-rule="evenodd"/></svg>

<svg
  id="external-site-twitter"
  viewBox="0 0 16 17"
  fill="none"
  xmlns="http://www.w3.org/2000/svg"
>
  <path
    fill-rule="evenodd"
    clip-rule="evenodd"
    d="M13.4734 2.93252C12.8747 2.27073 12.0216 1.84908 11.0774 1.8338C9.26464 1.80446 7.7948 3.29374 7.7948 5.16006C7.7948 5.42493 7.82384 5.68323 7.87984 5.93118C5.15168 5.75914 2.73288 4.37797 1.11392 2.29602C0.83136 2.7949 0.66944 3.37798 0.66944 4.00259C0.66944 5.18504 1.24896 6.23444 2.12976 6.85406C1.59168 6.83096 1.08552 6.6726 0.64296 6.4128C0.64264 6.427 0.64264 6.4412 0.64264 6.45565C0.64264 8.10694 1.77416 9.49223 3.27584 9.81494C3.0004 9.89082 2.7104 9.93053 2.41104 9.9286C2.19952 9.92724 1.99384 9.90443 1.79344 9.86348C2.21112 11.2177 3.42336 12.2059 4.85984 12.2386C3.7364 13.1452 2.32104 13.6852 0.78304 13.6821C0.51808 13.6816 0.2568 13.6649 0 13.6329C1.45272 14.602 3.17816 15.1662 5.03192 15.1667C11.0698 15.1682 14.3716 10.0598 14.3716 5.62886C14.3716 5.48348 14.3683 5.33888 14.3621 5.19498C15.0034 4.73036 15.5599 4.14783 16 3.48263C15.4114 3.7406 14.7786 3.91194 14.1147 3.98381C14.7924 3.57832 15.313 2.92935 15.558 2.15111C14.9237 2.52509 14.2212 2.79329 13.4734 2.93252Z"
    fill="#000000"
  />
</svg>
